X:1
T:Title
%%score ( 1 2 ) ( 3 4 )
L:1/8
Q:1/4=107
M:9/8
K:Ab
V:1 treble nm="Violin, Soprano"
V:2 treble 
V:3 bass nm="Choir Pad, Denizli, 11.11.11.11 repeat"
V:4 bass 
V:1
 [CE]3 [CE]3- [CE][A,C][B,D] | [CE][DF][DG] [CA]3 [CE]2 E | [CF]2 [=DG] [CE]3- [CE] z E | %3
w: By~James~Baden~Powell,~1904 * * * *|||
 [EF]2 [=DG] E3 z3 | E3 [DF]3- [DF]D[DE] | .F3 z3 z3 | [B,G]2 [B,A] [A,F]3- [A,F] z [B,F] | %7
w: ||||
 [B,G]2 [B,A] [A,F]6 | [=Ec]3 [Fc]3- [Fc]2 [FB] | AB[Fc] d2 c [GB]2 [FA] | %10
w: |||
 [DG]2 [DF] [C=E]3- [CE] z [CA] | [_CG]2 [=DF] [=C=E]3 z3 | C3 [Fc]3- [Fc]2 [GB] | %13
w: |||
 A[GB][Ac] e2 d [Ec]2 [Af] | [Ge]2 [Bd] [Ac]3- [Ac] z E | [DF]2 [DG] [CA]6- | [CA]3 z3 z3 |] %17
w: ||||
V:2
 x9 | x9 | x9 | x9 | x9 | D-[DG][CA] [B,B]3 [B,F]2 [B,F] | x9 | x9 | x9 | .F3 F3 z3 | x9 | x9 | %12
 x9 | z3 E3 z3 | x9 | x9 | x9 |] %17
V:3
 A,3 A,3- A,3/2 z/ A, | A,2 [A,B,] [A,C]3 A,2 [A,C] | [A,C]2 [G,_C] [C,G,]3- [C,G,] z [C,G,] | %3
 [_C,A,]2 [B,,A,] [E,G,]3 z3 | z3 .A,6 | .A,3 z3 z3 | [C,=E,]2 [C,E,] [D,F,]3- [D,F,] z [D,F,] | %7
 [C,F,]2 [C,=E,] [F,,F,]3 .[F,,F,]3 | [G,B,]3 z3 C2 [G,C] | C-[G,C]C B,2 [A,C] [=E,D]2 [F,C] | %10
 [B,,B,]2 [_C,A,] [=C,G,]3- [C,G,] z [F,,F,] | [G,,=D,]2 [_C,G,] [=C,G,]3 z3 | [B,C]3 C3 F2 [D=E] | %13
 [CE][K:bass][B,D][A,C] [G,B,]3 [A,C]2 [D,B,] | [E,B,]2 [G,E] [A,E]3- [A,E] z [C,A,] | %15
 [D,D]2 [E,B,] [A,,E,A,]6- | [A,,E,A,]3 z3 z3 |] %17
V:4
 x9 | x9 | x9 | x9 | [E,G,]3 E,3- E,-[E,F,-]/F,/[E,G,] | E,-[E,B,][E,C] [D,D]3 [D,B,]2 [D,F,] | %6
 x9 | x9 | z3 A,6 | .F,3 z3 z3 | x9 | x9 | z3 A,6 | x[K:bass] x8 | x9 | x9 | x9 |] %17

